gtk-icons/Papirus-GTK/16x16/mimetypes/image-x-generic.svg

<?xml version="1.0" encoding="UTF-8" standalone="no"?>
<svg
   xmlns:dc="http://purl.org/dc/elements/1.1/"
   xmlns:cc="http://creativecommons.org/ns#"
   xmlns:rdf="http://www.w3.org/1999/02/22-rdf-syntax-ns#"
   xmlns:svg="http://www.w3.org/2000/svg"
   xmlns="http://www.w3.org/2000/svg"
   xmlns:sodipodi="http://sodipodi.sourceforge.net/DTD/sodipodi-0.dtd"
   xmlns:inkscape="http://www.inkscape.org/namespaces/inkscape"
   width="16px"
   height="16px"
   viewBox="0 0 16 16"
   version="1.1"
   id="svg2"
   inkscape:version="0.91 r"
   sodipodi:docname="image-x-generic.svg">
  <metadata
     id="metadata15">
    <rdf:RDF>
      <cc:Work
         rdf:about="">
        <dc:format>image/svg+xml</dc:format>
        <dc:type
           rdf:resource="http://purl.org/dc/dcmitype/StillImage" />
      </cc:Work>
    </rdf:RDF>
  </metadata>
  <defs
     id="defs13" />
  <sodipodi:namedview
     pagecolor="#ffffff"
     bordercolor="#666666"
     borderopacity="1"
     objecttolerance="10"
     gridtolerance="10"
     guidetolerance="10"
     inkscape:pageopacity="0"
     inkscape:pageshadow="2"
     inkscape:window-width="1535"
     inkscape:window-height="876"
     id="namedview11"
     showgrid="false"
     inkscape:zoom="14.75"
     inkscape:cx="-4.0338983"
     inkscape:cy="8"
     inkscape:window-x="65"
     inkscape:window-y="24"
     inkscape:window-maximized="1"
     inkscape:current-layer="svg2" />
  <g
     id="surface1"
     transform="translate(-0.5,0)">
    <path
       style="fill:#66bdb5;fill-opacity:1;fill-rule:nonzero;stroke:none"
       d="m 14.5,13.332031 0,-10.664062 C 14.5,2.296875 14.210938,2 13.851562,2 L 2.148438,2 C 1.789062,2 1.5,2.296875 1.5,2.667969 l 0,10.664062 C 1.5,13.703125 1.789062,14 2.148438,14 l 11.703124,0 C 14.210938,14 14.5,13.703125 14.5,13.332031 Z m 0,0"
       id="path5"
       inkscape:connector-curvature="0" />
    <path
       style="fill:#ffffff;fill-opacity:1;fill-rule:nonzero;stroke:none"
       d="m 5.5,6.5 3,3.75 2.25,-2 2,2 0,1.75 L 3,12 3,9.5 Z m 0,0"
       id="path7"
       inkscape:connector-curvature="0" />
    <path
       style="fill:#ffffff;fill-opacity:0.10196102;fill-rule:nonzero;stroke:none"
       d="M 2.148438,2 C 1.789062,2 1.5,2.296875 1.5,2.667969 l 0,0.5 C 1.5,2.796875 1.789062,2.5 2.148438,2.5 l 11.703124,0 C 14.210938,2.5 14.5,2.796875 14.5,3.167969 l 0,-0.5 C 14.5,2.296875 14.210938,2 13.851562,2 Z m 0,0"
       id="path9"
       inkscape:connector-curvature="0" />
  </g>
</svg>

<?xml version="1.0" encoding="UTF-8" standalone="no"?>
<svg id="svg2" xmlns:rdf="http://www.w3.org/1999/02/22-rdf-syntax-ns#" xmlns="http://www.w3.org/2000/svg" height="16px" width="16px" version="1.1" xmlns:cc="http://creativecommons.org/ns#" xmlns:dc="http://purl.org/dc/elements/1.1/" viewBox="0 0 16 16">
 <metadata id="metadata15">
  <rdf:RDF>
   <cc:Work rdf:about="">
    <dc:format>image/svg+xml</dc:format>
    <dc:type rdf:resource="http://purl.org/dc/dcmitype/StillImage"/>
   </cc:Work>
  </rdf:RDF>
 </metadata>
 <g id="surface1" transform="translate(-.5)">
  <path id="path5" d="m14.5 13.332v-10.664c0-0.3711-0.289-0.668-0.648-0.668h-11.704c-0.3589 0-0.648 0.2969-0.648 0.668v10.664c0 0.371 0.2891 0.668 0.6484 0.668h11.703c0.36 0 0.649-0.297 0.649-0.668z" fill="#66bdb5"/>
  <path id="path7" d="m5.5 6.5 3 3.75 2.25-2 2 2v1.75h-9.75v-2.5z" fill="#fff"/>
  <path id="path9" d="m2.1484 2c-0.3593 0-0.6484 0.2969-0.6484 0.668v0.5c0-0.3711 0.2891-0.668 0.6484-0.668h11.703c0.36 0 0.649 0.2969 0.649 0.668v-0.5c0-0.3711-0.289-0.668-0.648-0.668z" fill-opacity=".10196" fill="#fff"/>
 </g>
</svg>
